resources/svg/home-smile-fill.svg

<svg fill="currentColor" viewBox="0 0 24 24" xmlns="http://www.w3.org/2000/svg"><path d="M20 20.0001C20 20.5524 19.5523 21.0001 19 21.0001H5C4.44772 21.0001 4 20.5524 4 20.0001V11.0001L1 11.0001L11.3273 1.61162C11.7087 1.26488 12.2913 1.26488 12.6727 1.61162L23 11.0001L20 11.0001V20.0001ZM7.5 13.0001C7.5 15.4854 9.51472 17.5001 12 17.5001C14.4853 17.5001 16.5 15.4854 16.5 13.0001H14.5C14.5 14.3808 13.3807 15.5001 12 15.5001C10.6193 15.5001 9.5 14.3808 9.5 13.0001H7.5Z"/></svg>

<svg xmlns="http://www.w3.org/2000/svg" viewBox="0 0 24 24" fill="currentColor">
    <g>
        <path fill="none" d="M0 0h24v24H0z"/>
        <path d="M20 20a1 1 0 0 1-1 1H5a1 1 0 0 1-1-1v-9H1l10.327-9.388a1 1 0 0 1 1.346 0L23 11h-3v9zM7.5 13a4.5 4.5 0 1 0 9 0h-2a2.5 2.5 0 1 1-5 0h-2z"/>
    </g>
</svg>
